assets-src/icon/upload.svg

<svg xmlns="http://www.w3.org/2000/svg" viewBox="0 0 640 640">
    <!-- Font Awesome Free Copyright 2025 Fonticons, Inc.-->
    <path
        d="M352 173.3V384c0 17.7-14.3 32-32 32s-32-14.3-32-32V173.3l-41.4 41.4c-12.5 12.5-32.8 12.5-45.3 0s-12.5-32.8 0-45.3l96-96c12.5-12.5 32.8-12.5 45.3 0l96 96c12.5 12.5 12.5 32.8 0 45.3s-32.8 12.5-45.3 0L352 173.3zM320 464c44.2 0 80-35.8 80-80h80c35.3 0 64 28.7 64 64v32c0 35.3-28.7 64-64 64H160c-35.3 0-64-28.7-64-64V448c0-35.3 28.7-64 64-64h80c0 44.2 35.8 80 80 80zm144 24c13.3 0 24-10.7 24-24s-10.7-24-24-24-24 10.7-24 24 10.7 24 24 24z" />
</svg>

<svg xmlns="http://www.w3.org/2000/svg" viewBox="0 0 640 640"><!--!Font
    Awesome Free v7.1.0 by @fontawesome - https://fontawesome.com License -
    https://fontawesome.com/license/free Copyright 2025 Fonticons, Inc.-->
    <path
        d="M352 173.3L352 384C352 401.7 337.7 416 320 416C302.3 416 288 401.7 288 384L288 173.3L246.6 214.7C234.1 227.2 213.8 227.2 201.3 214.7C188.8 202.2 188.8 181.9 201.3 169.4L297.3 73.4C309.8 60.9 330.1 60.9 342.6 73.4L438.6 169.4C451.1 181.9 451.1 202.2 438.6 214.7C426.1 227.2 405.8 227.2 393.3 214.7L352 173.3zM320 464C364.2 464 400 428.2 400 384L480 384C515.3 384 544 412.7 544 448L544 480C544 515.3 515.3 544 480 544L160 544C124.7 544 96 515.3 96 480L96 448C96 412.7 124.7 384 160 384L240 384C240 428.2 275.8 464 320 464zM464 488C477.3 488 488 477.3 488 464C488 450.7 477.3 440 464 440C450.7 440 440 450.7 440 464C440 477.3 450.7 488 464 488z" />
</svg>
